!!!COM:	la Rue, Pierre de
!!!CDT:	~1452///-1518/11/20
!!!OTL:	Mijn hert altijt heeft verlanghen
!!!AGN:	Song; Chanson
!!!SCT:	Rue3015
!!!SCA:	Rue3015
!!!voices:	4
**kern	**kern	**kern	**kern
*staff4	*staff3	*staff2	*staff1
*Ivox	*Ivox	*Ivox	*Ivox
*I"Bassus	*I"Tenor	*I"Contra	*I"Discantus
*I'B	*I'T	*I'C	*I'D
*clefF4	*clefGv2	*clefG2	*clefG2
*k[]	*k[]	*k[b-]	*k[]
*M2/1	*M2/1	*M2/1	*M2/1
*met(C|)	*met(C|)	*met(C|)	*met(C|)
=1-	=1-	=1-	=1-
0r	0r	1g	0r
.	.	2g/	.
.	.	2g/	.
=2	=2	=2	=2
1r	0r	2d/	0r
.	.	2f/	.
1G	.	2g/	.
.	.	[2b-\	.
=3	=3	=3	=3
2G\	0r	2b-\]	0r
2G\	.	4a/	.
.	.	4g/	.
2D\	.	1a	.
2F\	.	.	.
=4	=4	=4	=4
2G\	1d	1d	0r
1B-i	.	.	.
.	2d\	1r	.
4A\	2d\	.	.
4G\	.	.	.
=5	=5	=5	=5
1A	2A/	1a	1r
.	2c\	.	.
1D	2d\	2b-\	1dd
.	[2f\	[2a/	.
=6	=6	=6	=6
1r	2f\]	2a/]	2dd\
.	4e\	4g/	2dd\
.	4d\	4f/	.
2r	2e\	2g/	1cc
2A\	2A/	2a/	.
=7	=7	=7	=7
2B\	0r	1d	2dd\
1d	.	.	1ff
.	.	1a	.
4c\	.	.	4ee\
4B\	.	.	4dd\
=8	=8	=8	=8
1c	1e	1r	1ee
1d	1f	2r	1a
.	.	[2a/	.
=9	=9	=9	=9
1D	1f	2a/]	1r
.	.	2a/	.
1r	2e\	2.g/	[1ee
.	[2g\	.	.
.	.	4a/	.
=10	=10	=10	=10
0r	2g\]	2bni\	1ee]
.	4f\	1cc	.
.	4e\	.	.
.	1d	.	1ff
.	.	2bni\	.
=11	=11	=11	=11
0r	1c	2.cc\	2ee\
.	.	.	1.gg
.	.	4b-\	.
.	1r	4g/	.
.	.	4a/	.
.	.	[2b-\	.
=12	=12	=12	=12
1A	1r	2b-\]	2ee\
.	.	1a	2cc\
1B-i	1d	.	1dd
.	.	2g/	.
=13	=13	=13	=13
2A\	1e	1.a	1cc
1c	.	.	.
.	2e\	.	2cc\
2B-i\	[2d\	[2g/	[2dd\
=14	=14	=14	=14
2A\	2d\]	2g/]	4dd\]
.	.	.	4cc\
4G\	1c	1f	4b-i\
4F\	.	.	4a/
1G	.	.	1b-i
.	2B-i\	2e/	.
=15	=15	=15	=15
1F	2c\	2f/	1a
.	2f\	2a/	.
1r	2e\	2g/	2r
.	2d\	2f/	2ff\
=16	=16	=16	=16
2r	2c\	2g/	2ee\
2B-i\	2.f\	2d/	2dd\
2A\	.	2f/	2cc\
.	4d\	.	.
2G\	2e\	2g/	2b-i\
=17	=17	=17	=17
2.F\	1f	1c	1a
4E\	.	.	.
2D\	2f\	1d	2a/
[2G\	[2g\	.	[2b-i\
=18	=18	=18	=18
4G\]	2g\]	2r	4b-i\]
4F\	.	.	4a/
2D\	2f\	1a	1dd
1A	1e	.	.
.	.	[2a/	2cc#i\
=19	=19	=19	=19
1D	0d	4a/]	0dd
.	.	4g/	.
.	.	1f	.
1r	.	.	.
.	.	4e/	.
.	.	4d/	.
=20	=20	=20	=20
1A	1e	0c	0r
2A\	2e\	.	.
2A\	[2e\	.	.
=21	=21	=21	=21
2G\	2e\]	0r	0r
2.F\	2f\	.	.
.	1f	.	.
4G\	.	.	.
4A\	.	.	.
4B\	.	.	.
=22	=22	=22	=22
2c\	2e\	2r	0r
2A\	2e\	1a	.
1B-i	1d	.	.
.	.	2g/	.
=23	=23	=23	=23
1A	0c	2a/	1ee
.	.	2e/	.
2.A\	.	1cc	2ee\
.	.	.	2ee\
4B\	.	.	.
=24	=24	=24	=24
2c\	0r	4cc\	2ee\
.	.	4b-\	.
1d	.	4a/	1ff
.	.	4g/	.
.	.	2f/	.
2d\	.	[2b-\	2ff\
=25	=25	=25	=25
2c\	0r	2b-\]	1ee
2A\	.	1a	.
1B-i	.	.	1dd
.	.	2g/	.
=26	=26	=26	=26
[0A	1e	[0a	0cc
.	2e\	.	.
.	2e\	.	.
=27	=27	=27	=27
0A]	2f\	0a]	2r
.	1e	.	2ee\
.	.	.	2ee\
.	4d\	.	2ee\
.	4c\	.	.
=28	=28	=28	=28
0r	2d\	0r	2ff\
.	2c\	.	1ee
.	1g	.	.
.	.	.	4dd\
.	.	.	4cc\
=29	=29	=29	=29
1r	1f	1r	2dd\
.	.	.	2cc\
1c	2e\	1g	1gg
.	[2g\	.	.
=30	=30	=30	=30
2c\	4g\]	2cc\	1.gg
.	4f\	.	.
1c	1e	1cc	.
[2d\	2d\	4b-\	[2ff\
.	.	4a/	.
=31	=31	=31	=31
2d\]	1e	0a	2ff\]
2c\	.	.	1ee
1d	1f	.	.
.	.	.	2dd\
=32	=32	=32	=32
1A	[0e	2r	0ee
.	.	2a/	.
2r	.	2g/	.
2A\	.	2a/	.
=33	=33	=33	=33
2G\	0e]	2e/	0r
2A\	.	2a/	.
2E\	.	4g/	.
.	.	4f/	.
[2A\	.	4e/	.
.	.	4d/	.
=34	=34	=34	=34
2A\]	0r	2c/	1r
4G\	.	1d	.
4F\	.	.	.
1E	.	.	1ee
.	.	2c#i/	.
=35	=35	=35	=35
0D	0r	1d	2ff\
.	.	.	1ff
.	.	2.dd\	.
.	.	.	2ee\
.	.	4cc\	.
=36	=36	=36	=36
0r	1r	4b-\	2dd\
.	.	4a/	.
.	.	1a	2cc\
.	1e	.	1b
.	.	2g#i/	.
=37	=37	=37	=37
2r	2f\	1a	0a
2D\	1f	.	.
2F\	.	1r	.
2F\	2f\	.	.
=38	=38	=38	=38
2G\	1d	0r	0r
1B-i	.	.	.
.	2d\	.	.
4A\	2d\	.	.
4G\	.	.	.
=39	=39	=39	=39
1A	2A/	[0a	1r
.	2c\	.	.
1D	2d\	.	1dd
.	[2f\	.	.
=40	=40	=40	=40
0r	2f\]	1a]	2dd\
.	4e\	.	2dd\
.	4d\	.	.
.	1e	2.g/	1cc
.	.	4f/	.
=41	=41	=41	=41
1A	1A	1a	1cc
2B\	1r	2g/	2dd\
[2d\	.	2f/	[2ff\
=42	=42	=42	=42
2d\]	1r	0a	2ff\]
4c\	.	.	4ee\
4B\	.	.	4dd\
2c\	1e	.	1ee
2c\	.	.	.
=43	=43	=43	=43
1d	1f	1a	1a
1r	2e\	2.g/	1r
.	[2g\	.	.
.	.	4a/	.
=44	=44	=44	=44
0r	2g\]	2bni\	1ee
.	4f\	1cc	.
.	4e\	.	.
.	1d	.	1ff
.	.	2bni\	.
=45	=45	=45	=45
2r	1c	2.cc\	2ee\
1e	.	.	1gg
.	.	4b-\	.
.	1r	4g/	.
.	.	4a/	.
2d\	.	[2b-\	2ff\
=46	=46	=46	=46
2c\	1r	2b-\]	2ee\
2A\	.	2a/	4dd\
.	.	.	4cc\
1B-i	1d	2.a/	1dd
.	.	4g/	.
=47	=47	=47	=47
2A\	1e	1.a	1cc
1c	.	.	.
.	2e\	.	2cc\
2B-i\	[2d\	[2g/	[2dd\
=48	=48	=48	=48
2A\	2d\]	2g/]	4dd\]
.	.	.	4cc\
2F\	1c	1f	4b-i\
.	.	.	4a/
1G	.	.	1b-i
.	2B-i\	2e/	.
=49	=49	=49	=49
1F	2c\	2f/	1a
.	2f\	2a/	.
1r	2e\	2g/	2r
.	2d\	2f/	2ff\
=50	=50	=50	=50
2r	2c\	2g/	2ee\
2B-i\	2.f\	2d/	2dd\
2A\	.	2f/	2cc\
.	8e\L	.	.
.	8d\J	.	.
2G\	2e\	2g/	2b-i\
=51	=51	=51	=51
2.F\	2f\	1c	1a
.	1a	.	.
4E\	.	.	.
2D\	.	[1d	2a/
[2G\	[2g\	.	[2b-i\
=52	=52	=52	=52
4G\]	4g\]	2d/]	4b-\]
4F\	4f\	.	4a/
2D\	4e\	2.a/	1dd
.	4d\	.	.
1A	1e	.	.
.	.	4g/	.
.	.	4f/	2cc#i\
.	.	4e/	.
=53	=53	=53	=53
[0Dl	[0dl	1.f	[0ddl
.	.	4e/	.
.	.	4d/	.
=54	=54	=54	=54
0D]	0d]	0al	0dd]
==	==	==	==
*-	*-	*-	*-
!!!RDF**kern: l=long note in original notation
!!!RDF**kern: i=editorial accidental
!!!ENC:	Chris Gage 06-17-2013
!!!END:	2013/08/06/
!!!EED:	Jesse Rodin
!!!EEV:	2013/08/06/
!!!ONB:	Translated from MusicXML and edited on 2013/08/06/ by Craig Sapp
!!muse2ps: C^@{COM}^i2I150v85,85,85,150Q16
